X: 20765
T: Johnny I Do Miss You
R: polka
M: 2/4
K: Dmajor
d>B|:AF ED|F2 A,>B,|DB AF|E3 B|
AF ED|F2 A,F|G>G FE|1 D2 d>B:|2 D2 D>E||
FA A/B/A/G/|FA A>G|FA Bc|d2 d2|
FA A/B/A/G/|FA d>e|fe ed|e2 A>G|
FA A/B/A/G/|FA A>G|FA Bc|d2 c>B|
AF ED|F2 A,F|G>G FE|D2 d>B||

